src/assets/logo.svg

<svg width="122" height="36" viewBox="0 0 122 36" fill="none" xmlns="http://www.w3.org/2000/svg">
<path d="M20.0973 28.867C19.2552 28.867 18.6304 28.6704 18.2228 28.277C17.8152 27.8828 17.5502 27.3322 17.4277 26.6252C17.3053 25.919 17.244 25.1177 17.244 24.2211V9.17999H15.0425V6.97968H17.244L17.7334 2.75519H19.8117V6.97968H22.5907V9.17999H19.8117V24.8325C19.8117 25.4842 19.8796 25.953 20.0155 26.239C20.1514 26.5241 20.4097 26.6667 20.7904 26.6667H22.1768V28.3374C21.9856 28.4456 21.7612 28.5408 21.5037 28.623C21.2454 28.7043 21.0009 28.7655 20.7703 28.8066C20.5388 28.8469 20.3145 28.867 20.0973 28.867Z" fill="white"/>
<path fill-rule="evenodd" clip-rule="evenodd" d="M27.6388 28.9084C26.8773 28.9084 26.2114 28.786 25.6411 28.5411C25.0708 28.297 24.5885 27.9372 24.1944 27.4617C23.8002 26.9861 23.4945 26.3881 23.2773 25.6677C23.06 24.9481 22.9514 24.1262 22.9514 23.202C22.9514 22.2232 23.094 21.3061 23.3791 20.4506C23.6643 19.5943 24.1465 18.8332 24.8259 18.1673C25.5052 17.5022 26.4496 16.9793 27.659 16.5985C28.8684 16.2177 30.4103 16.0274 32.2848 16.0274V12.4407C32.2848 11.5986 32.19 10.9059 32.0004 10.3624C31.8101 9.81894 31.4905 9.40463 31.0418 9.11947C30.5931 8.83348 30.0157 8.69048 29.3095 8.69048C28.3853 8.69048 27.6992 8.89428 27.2514 9.30189C26.8027 9.70949 26.5104 10.2395 26.3745 10.892C26.2387 11.5446 26.1707 12.2918 26.1707 13.1339V13.3779H23.7666C23.739 13.2697 23.7251 13.1477 23.7251 13.0118C23.7251 12.876 23.7251 12.7263 23.7251 12.5627C23.7251 10.9877 23.9901 9.76485 24.5202 8.89428C25.0502 8.0254 25.7501 7.40728 26.6198 7.03994C27.4887 6.67343 28.4398 6.49017 29.4731 6.49017C30.5323 6.49017 31.4628 6.66001 32.2646 6.99968C33.0664 7.33935 33.6917 7.94405 34.1404 8.81377C34.5882 9.68349 34.8121 10.8791 34.8121 12.4004V25.1985C34.8121 25.6883 34.9006 26.0485 35.0776 26.2791C35.2537 26.5098 35.4776 26.6251 35.7494 26.6251H37.054V28.2555C36.7277 28.3922 36.3679 28.5214 35.9746 28.643C35.5795 28.7654 35.1648 28.8266 34.7304 28.8266C34.1601 28.8266 33.7118 28.6908 33.3855 28.419C33.0593 28.1473 32.8282 27.7737 32.6924 27.2981C32.5565 26.8226 32.4617 26.3131 32.408 25.7696H32.2042C31.9317 26.3676 31.5849 26.9044 31.1638 27.3799C30.7428 27.8554 30.2405 28.2291 29.6567 28.5008C29.0722 28.7725 28.3995 28.9084 27.6388 28.9084ZM28.332 26.7068C28.7388 26.7068 29.1732 26.5848 29.6353 26.3408C30.0975 26.0959 30.5256 25.7356 30.9198 25.2601C31.3131 24.7846 31.6394 24.1732 31.8985 23.4259C32.156 22.6786 32.2848 21.7888 32.2848 20.7563V17.9434C30.464 17.971 29.0713 18.2021 28.1068 18.6365C27.1424 19.071 26.4836 19.6551 26.1305 20.389C25.7774 21.1228 25.6008 21.9519 25.6008 22.8761C25.6008 23.7182 25.7094 24.4243 25.9267 24.9947C26.1439 25.5658 26.4496 25.994 26.8438 26.2791C27.2371 26.5643 27.7332 26.7068 28.332 26.7068Z" fill="white"/>
<path d="M38.3774 36C38.078 36 37.745 35.9798 37.3785 35.9396C37.0112 35.8985 36.692 35.8507 36.4211 35.7962V33.7997H37.5622C38.1593 33.7988 38.6416 33.6017 39.0089 33.2084C39.3754 32.8142 39.7012 32.2162 39.9864 31.4144C40.2724 30.6126 40.524 29.6142 40.7412 28.419L36.2979 6.97955H38.9888L41.4344 20.267C41.4881 20.5119 41.5422 20.8721 41.5967 21.3476C41.6512 21.8231 41.7124 22.3188 41.7803 22.8346C41.8483 23.3512 41.8961 23.8268 41.9238 24.2612H42.1678C42.1947 23.935 42.242 23.5752 42.31 23.1818C42.3779 22.7876 42.4391 22.3867 42.4937 21.9791C42.5482 21.5715 42.6027 21.1774 42.6572 20.7966C42.7109 20.4167 42.765 20.0908 42.8195 19.8191L45.2651 6.97955H47.7925L43.4724 27.6856C43.2275 28.8539 42.9759 29.9476 42.7176 30.9666C42.4593 31.9856 42.1401 32.8687 41.7602 33.616C41.3795 34.3633 40.9173 34.9474 40.3739 35.3684C39.8304 35.7895 39.1649 36 38.3774 36Z" fill="white"/>
<path d="M59.1839 0.982605H47.1068L46.5847 3.51H51.9666V28.4192H54.8198V3.51H59.1839V0.982605Z" fill="white"/>
<path d="M60.5403 0.982605V28.4192H63.1079V15.7017C63.1079 14.1526 63.2711 12.8686 63.5973 11.8495C63.9227 10.8305 64.3572 10.0765 64.9006 9.58759C65.4441 9.09863 66.0555 8.85415 66.7348 8.85415C67.2238 8.85415 67.618 8.9355 67.9174 9.09821C68.216 9.26175 68.447 9.50665 68.6106 9.8329C68.7733 10.1592 68.8819 10.5395 68.9364 10.9739C68.9909 11.4092 69.0182 11.8848 69.0182 12.4006V28.4192H71.5858V11.8294C71.5858 10.4984 71.416 9.43872 71.0763 8.65035C70.7366 7.86282 70.2678 7.30592 69.6698 6.97967C69.0718 6.65342 68.3518 6.4903 67.5098 6.4903C66.9395 6.4903 66.3893 6.58549 65.8592 6.77587C65.3292 6.96625 64.8469 7.27867 64.4125 7.71311C63.9772 8.14755 63.6103 8.7317 63.3117 9.46556H63.1079V0.982605H60.5403Z" fill="white"/>
<path fill-rule="evenodd" clip-rule="evenodd" d="M79.7299 28.9084C78.154 28.9076 76.8973 28.5268 75.9596 27.7661C75.022 27.0063 74.3493 25.7973 73.9417 24.1392C73.5341 22.4819 73.3303 20.3353 73.3303 17.6993C73.3303 14.9551 73.5547 12.7607 74.0034 11.116C74.4521 9.47214 75.1654 8.29001 76.1433 7.56957C77.1212 6.84997 78.3981 6.49017 79.974 6.49017C81.2236 6.49017 82.2904 6.78204 83.1744 7.36577C84.0576 7.95034 84.7235 8.95593 85.1722 10.3825C85.62 11.8092 85.844 13.7725 85.844 16.2727V18.2289H75.9797C75.9797 20.1588 76.0816 21.7485 76.2854 22.9981C76.4892 24.2478 76.8629 25.1783 77.4063 25.7897C77.9498 26.4011 78.7109 26.7068 79.6897 26.7068C80.2055 26.7068 80.6739 26.6049 81.0949 26.4011C81.5159 26.1973 81.8828 25.8849 82.1957 25.4639C82.5077 25.0429 82.7521 24.4789 82.9291 23.7718C83.1061 23.0657 83.208 22.2098 83.2348 21.2042H85.7622C85.7353 22.4547 85.5794 23.5622 85.2942 24.5267C85.0082 25.4912 84.614 26.2997 84.1116 26.9522C83.6084 27.6038 82.9903 28.0928 82.2573 28.419C81.5235 28.7453 80.681 28.9084 79.7299 28.9084ZM75.9797 16.3129H83.1946C83.1946 14.9819 83.14 13.8409 83.031 12.8898C82.9228 11.9387 82.7463 11.1504 82.5014 10.5247C82.2565 9.90072 81.9168 9.43902 81.4824 9.1396C81.0479 8.84019 80.5045 8.69048 79.852 8.69048C78.8195 8.69048 78.0249 9.01673 77.468 9.66924C76.9103 10.3209 76.5228 11.2175 76.3056 12.3589C76.0883 13.5004 75.9797 14.8184 75.9797 16.3129Z" fill="white"/>
<path d="M87.7468 28.419V6.97955H89.7848L89.9886 9.83278H90.1924C90.5455 9.01757 90.9464 8.36507 91.3951 7.87527C91.843 7.38632 92.3386 7.03323 92.8821 6.81601C93.4256 6.59878 93.9963 6.49017 94.5943 6.49017C95.5999 6.49017 96.4356 6.73465 97.1015 7.22361C97.7666 7.71257 98.1948 8.58229 98.386 9.83278H98.6301C98.9831 9.01757 99.3702 8.36507 99.7912 7.87527C100.212 7.38632 100.694 7.03323 101.238 6.81601C101.781 6.59878 102.352 6.49017 102.95 6.49017C103.792 6.49017 104.512 6.6533 105.11 6.97955C105.708 7.30496 106.177 7.86185 106.517 8.65023C106.856 9.4386 107.026 10.4983 107.026 11.8293V28.419H104.459V12.4004C104.459 11.8838 104.438 11.4083 104.398 10.9738C104.357 10.5394 104.255 10.159 104.091 9.83278C103.928 9.50653 103.698 9.26163 103.399 9.09809C103.1 8.93538 102.706 8.85403 102.217 8.85403C101.537 8.85403 100.933 9.09851 100.403 9.58746C99.8726 10.0764 99.4516 10.8304 99.1396 11.8494C98.8267 12.8684 98.6703 14.1525 98.6703 15.7015V28.419H96.1429V12.4004C96.1429 11.8838 96.1161 11.4083 96.0624 10.9738C96.0079 10.5394 95.8989 10.159 95.7353 9.83278C95.5726 9.50653 95.342 9.26163 95.0434 9.09809C94.744 8.93538 94.3498 8.85403 93.8609 8.85403C93.1815 8.85403 92.5768 9.09851 92.0468 9.58746C91.5167 10.0764 91.0957 10.8304 90.7837 11.8494C90.4709 12.8684 90.3145 14.1525 90.3145 15.7015V28.419H87.7468Z" fill="white"/>
<path fill-rule="evenodd" clip-rule="evenodd" d="M115.191 28.9084C113.614 28.9076 112.357 28.5268 111.421 27.7661C110.483 27.0063 109.81 25.7973 109.403 24.1392C108.995 22.4819 108.791 20.3353 108.791 17.6993C108.791 14.9551 109.015 12.7607 109.463 11.116C109.912 9.47214 110.625 8.29001 111.603 7.56957C112.582 6.84997 113.859 6.49017 115.435 6.49017C116.685 6.49017 117.751 6.78204 118.634 7.36577C119.517 7.95034 120.183 8.95593 120.632 10.3825C121.081 11.8092 121.305 13.7725 121.305 16.2727V18.2289H111.441C111.441 20.1588 111.543 21.7485 111.746 22.9981C111.95 24.2478 112.324 25.1783 112.867 25.7897C113.411 26.4011 114.171 26.7068 115.149 26.7068C115.665 26.7068 116.134 26.6049 116.556 26.4011C116.977 26.1973 117.344 25.8849 117.657 25.4639C117.969 25.0429 118.213 24.4789 118.39 23.7718C118.566 23.0657 118.668 22.2098 118.696 21.2042H121.223C121.195 22.4547 121.039 23.5622 120.754 24.5267C120.469 25.4912 120.075 26.2997 119.573 26.9522C119.069 27.6038 118.451 28.0928 117.717 28.419C116.984 28.7453 116.142 28.9084 115.191 28.9084ZM111.441 16.3129H118.655C118.655 14.9819 118.6 13.8409 118.492 12.8898C118.383 11.9387 118.206 11.1504 117.962 10.5247C117.717 9.90072 117.378 9.43902 116.943 9.1396C116.508 8.84019 115.965 8.69048 115.313 8.69048C114.28 8.69048 113.485 9.01673 112.928 9.66924C112.371 10.3209 111.984 11.2175 111.767 12.3589C111.549 13.5004 111.441 14.8184 111.441 16.3129Z" fill="white"/>
<path d="M14.3062 14.6876C14.1528 14.207 13.9137 13.7554 13.6269 13.3742C13.3413 12.9892 13.018 12.6622 12.6846 12.3816C12.0166 11.8218 11.3172 11.4242 10.6328 11.0732C9.26279 10.3813 7.9167 9.8756 6.68509 9.28558C6.07117 8.99246 5.48744 8.68172 4.97543 8.33324C4.46341 7.98728 4.02813 7.60358 3.72997 7.18717C3.43056 6.77076 3.26701 6.32667 3.2192 5.81717C3.21166 5.75427 3.20789 5.68969 3.20789 5.62343L3.20411 5.5253L3.2104 5.43598C3.21376 5.3756 3.21627 5.31563 3.21794 5.25608C3.22423 5.1957 3.23807 5.13657 3.24688 5.07744C3.25694 4.95667 3.30349 4.84093 3.32991 4.72267C3.34375 4.66355 3.3752 4.60819 3.39533 4.55032C3.42049 4.49371 3.43307 4.43333 3.46703 4.37923C3.68593 3.93514 4.01303 3.52125 4.44076 3.21429C4.86472 2.90607 5.36415 2.68591 5.89882 2.57646C6.03217 2.54627 6.17055 2.53746 6.30642 2.51356L6.72282 2.49092L7.16943 2.5035C7.3141 2.52111 7.46254 2.5274 7.6047 2.55004C8.17962 2.63559 8.72058 2.81297 9.20995 3.08345C9.70561 3.34512 10.1396 3.72002 10.5145 4.16285C10.8932 4.60442 11.2064 5.12525 11.4593 5.69136L13.5615 4.85099C13.281 4.08737 12.8847 3.34386 12.3601 2.67081C11.8342 2.0028 11.1813 1.4002 10.4214 0.963657C9.6641 0.52586 8.82499 0.240285 7.98337 0.104417C7.77328 0.0691923 7.56193 0.0528377 7.35183 0.027677C7.14174 0.0138386 6.93291 0.00880627 6.72282 0C6.50392 0.00880627 6.28503 0.0150965 6.06613 0.0314509C5.84723 0.0629019 5.62708 0.0830304 5.40944 0.129578C4.54014 0.303187 3.69349 0.661728 2.95754 1.19639C2.21907 1.72729 1.61145 2.45695 1.19881 3.29606C1.14094 3.39796 1.10572 3.51244 1.05917 3.61937C1.01766 3.73008 0.968581 3.83702 0.935873 3.95024C0.872971 4.1792 0.798752 4.40439 0.767301 4.6409C0.74843 4.7579 0.725794 4.8749 0.713214 4.99315L0.690563 5.35044L0.683022 5.52782L0.686785 5.69891C0.688462 5.81214 0.695176 5.92662 0.706918 6.04236C0.747175 6.50154 0.846565 6.96953 1.01137 7.41488C1.17491 7.86022 1.40135 8.28292 1.66932 8.65782C2.20775 9.41012 2.87702 9.97624 3.54881 10.4342C4.22437 10.8921 4.91377 11.2506 5.59311 11.5752C6.94927 12.2218 8.29285 12.7276 9.48295 13.3327C10.0742 13.6321 10.6227 13.9604 11.058 14.3202C11.4908 14.6838 11.7839 15.0625 11.911 15.4625C11.9776 15.6626 12.0128 15.884 12.0078 16.1155C12.0103 16.3281 11.965 16.5319 11.8896 16.7369C11.8384 16.8711 11.7713 17.0036 11.6883 17.1345C11.4761 16.981 11.2626 16.8401 11.0479 16.7118C10.5611 16.4199 10.0704 16.1721 9.58484 15.9519C8.61238 15.5141 7.65377 15.1606 6.72912 14.8008C5.80572 14.441 4.91 14.0762 4.09983 13.6472C3.28714 13.222 2.57761 12.7137 2.07314 12.1124L0.304354 13.5264C1.07553 14.4863 2.03666 15.1631 2.98647 15.689C3.94257 16.2237 4.91252 16.6212 5.85479 17.0049C6.79705 17.3861 7.71919 17.7421 8.57465 18.1422C9.00113 18.3422 9.40495 18.5561 9.77732 18.785C10.1497 19.014 10.4818 19.2643 10.7448 19.5323C11.2769 20.0733 11.5109 20.6394 11.5159 21.3615C11.5071 21.7502 11.4606 22.139 11.3587 22.5176C11.2455 22.895 11.097 23.2674 10.8957 23.6285C10.8479 23.7203 10.7875 23.8071 10.7334 23.8964L10.6517 24.031C10.624 24.0751 10.59 24.1178 10.5598 24.1619L10.3749 24.4235L10.1698 24.6777L10.0667 24.8047L9.95471 24.928L9.73204 25.1759L9.49301 25.4149C9.41585 25.4962 9.3345 25.5751 9.24896 25.6514C8.72813 26.1332 8.16201 26.5886 7.56319 27.0176C7.06501 26.8163 6.57814 26.5974 6.1089 26.3546C5.44969 26.0162 4.82572 25.6313 4.26464 25.201C3.70733 24.7695 3.21165 24.2852 2.86947 23.7706C2.69963 23.5152 2.56377 23.2536 2.48452 22.9982C2.44049 22.8711 2.41658 22.7453 2.39771 22.6208C2.38009 22.4962 2.37632 22.378 2.38513 22.2409C2.42035 21.1916 3.26071 20.5614 4.1904 20.8482C4.6282 20.9665 5.00058 21.3086 5.22451 21.7779C5.33396 22.0106 5.41448 22.2698 5.43209 22.5428C5.45474 22.8133 5.43334 23.09 5.37421 23.3643L7.57075 23.9128C7.69403 23.4071 7.74183 22.8799 7.70283 22.3528C7.66761 21.8257 7.52797 21.3011 7.30278 20.8105C7.07634 20.3186 6.75554 19.8594 6.34165 19.4757C5.93153 19.0907 5.41824 18.7976 4.87226 18.6303C4.73639 18.58 4.598 18.5535 4.45836 18.5259L4.24828 18.4869C4.17909 18.4755 4.10863 18.4743 4.03944 18.468L3.82935 18.4542C3.76015 18.4491 3.69097 18.4454 3.61423 18.4504C3.46578 18.4554 3.31607 18.463 3.17014 18.4881C2.87576 18.5271 2.5902 18.6152 2.31595 18.7234C2.04673 18.8416 1.78379 18.98 1.54979 19.1599C1.07426 19.5071 0.685524 19.9739 0.43266 20.4922C0.174763 21.0092 0.0439312 21.5653 0.0112224 22.1C-0.00764805 22.3616 -0.00386966 22.6459 0.0313552 22.9189C0.0665801 23.1894 0.120672 23.4586 0.201186 23.7102C0.355924 24.2223 0.592431 24.6777 0.857875 25.0916C1.39757 25.9168 2.06685 26.561 2.7638 27.117C3.46578 27.6705 4.20676 28.1348 4.96535 28.5361C5.7252 28.9399 6.50392 29.2821 7.29271 29.5853L7.88148 29.8142L8.42116 29.4557C9.29801 28.872 10.1598 28.2354 10.9637 27.4869C11.0651 27.3963 11.1641 27.3011 11.2605 27.2013L11.5537 26.9069L11.8367 26.5949L11.9764 26.4389L12.111 26.2729L12.3789 25.9407L12.6293 25.5872C12.6708 25.5281 12.7136 25.4702 12.7526 25.4086L12.8671 25.2211C12.9425 25.0953 13.023 24.9746 13.091 24.8425C13.3765 24.3242 13.6043 23.7593 13.7703 23.1718C13.9288 22.5793 14.0018 21.9653 14.0068 21.3502C13.9993 20.706 13.871 20.0229 13.5967 19.3989C13.538 19.2656 13.4734 19.1356 13.403 19.009C13.4382 18.9687 13.473 18.928 13.5074 18.8869C13.7993 18.5171 14.0496 18.0969 14.2295 17.6314C14.4069 17.1672 14.5151 16.6577 14.5189 16.1519C14.5302 15.6676 14.461 15.1682 14.3062 14.6876Z" fill="white"/>
</svg>

<svg xmlns="http://www.w3.org/2000/svg" width="122" height="36" fill="none"><path fill="#fff" d="M20.097 28.867c-.842 0-1.467-.197-1.874-.59-.408-.394-.673-.945-.795-1.652a14.172 14.172 0 0 1-.184-2.404V9.18h-2.201v-2.2h2.201l.49-4.225h2.078V6.98h2.779v2.2h-2.78v15.652c0 .652.069 1.121.204 1.407.136.285.395.428.775.428h1.387v1.67a3.576 3.576 0 0 1-.673.286 5.903 5.903 0 0 1-.734.184c-.231.04-.456.06-.673.06Z"/><path fill="#fff" fill-rule="evenodd" d="M27.639 28.908c-.762 0-1.428-.122-1.998-.367a3.789 3.789 0 0 1-1.447-1.08c-.394-.475-.7-1.073-.917-1.793-.217-.72-.326-1.542-.326-2.466 0-.979.143-1.896.428-2.751a5.68 5.68 0 0 1 1.447-2.284c.68-.665 1.624-1.188 2.833-1.569 1.21-.38 2.751-.57 4.626-.57V12.44c0-.842-.095-1.535-.285-2.079-.19-.543-.51-.957-.958-1.243-.449-.286-1.026-.429-1.733-.429-.924 0-1.61.204-2.058.612-.448.407-.74.938-.877 1.59-.135.653-.203 1.4-.203 2.242v.244h-2.404a1.484 1.484 0 0 1-.042-.366v-.45c0-1.574.265-2.797.795-3.668.53-.869 1.23-1.487 2.1-1.854.869-.367 1.82-.55 2.853-.55 1.06 0 1.99.17 2.792.51.801.34 1.427.944 1.875 1.814.448.87.672 2.065.672 3.586v12.798c0 .49.089.85.266 1.081.176.23.4.346.671.346h1.305v1.63c-.326.137-.686.266-1.08.388a4.18 4.18 0 0 1-1.244.184c-.57 0-1.018-.136-1.344-.408-.327-.272-.558-.645-.694-1.12a8.652 8.652 0 0 1-.284-1.53h-.204a6.44 6.44 0 0 1-1.04 1.61 4.56 4.56 0 0 1-1.507 1.122c-.585.271-1.258.407-2.018.407Zm.693-2.201c.407 0 .841-.122 1.303-.366.462-.245.89-.605 1.285-1.08.393-.476.72-1.088.978-1.835.258-.747.387-1.637.387-2.67v-2.813c-1.821.028-3.214.26-4.178.694-.965.434-1.623 1.018-1.976 1.752-.354.734-.53 1.563-.53 2.487 0 .842.108 1.548.326 2.119.217.57.523.999.917 1.284.393.285.89.428 1.488.428Z" clip-rule="evenodd"/><path fill="#fff" d="M38.377 36a11.293 11.293 0 0 1-1.956-.204V33.8h1.141c.597-.001 1.08-.198 1.447-.592.366-.394.692-.992.977-1.794.286-.801.538-1.8.755-2.995l-4.443-21.44h2.69l2.446 13.288c.054.245.108.605.163 1.08.054.476.115.972.183 1.488.068.516.116.992.144 1.426h.244c.027-.326.074-.686.142-1.08.068-.393.13-.794.184-1.202.054-.407.109-.802.163-1.182.054-.38.108-.706.163-.978l2.445-12.84h2.527l-4.32 20.707a81.124 81.124 0 0 1-.754 3.28c-.259 1.02-.578 1.903-.958 2.65-.38.747-.843 1.331-1.386 1.752-.544.421-1.21.632-1.997.632Z"/><path fill="#fff" d="M59.184.983H47.107l-.522 2.527h5.382v24.91h2.853V3.51h4.364V.983ZM60.54.983v27.436h2.568V15.702c0-1.55.163-2.833.49-3.852.325-1.02.76-1.774 1.303-2.262.543-.49 1.154-.734 1.834-.734.489 0 .883.082 1.182.244.299.164.53.409.694.735.162.326.27.707.325 1.14.055.436.082.912.082 1.428v16.018h2.568V11.83c0-1.33-.17-2.39-.51-3.179-.34-.787-.808-1.344-1.406-1.67-.598-.327-1.318-.49-2.16-.49-.57 0-1.12.095-1.65.286-.53.19-1.013.503-1.448.937-.435.435-.802 1.019-1.1 1.753h-.204V.983H60.54Z"/><path fill="#fff" fill-rule="evenodd" d="M79.73 28.908c-1.576 0-2.833-.381-3.77-1.142-.938-.76-1.61-1.969-2.018-3.627-.408-1.657-.612-3.804-.612-6.44 0-2.744.225-4.938.673-6.583.45-1.644 1.162-2.826 2.14-3.546.978-.72 2.255-1.08 3.831-1.08 1.25 0 2.316.292 3.2.876.884.584 1.55 1.59 1.998 3.017.448 1.426.672 3.39.672 5.89v1.956H75.98c0 1.93.102 3.52.305 4.77.204 1.249.578 2.18 1.121 2.79.544.612 1.305.918 2.284.918.516 0 .984-.102 1.405-.306a3 3 0 0 0 1.1-.937c.313-.421.557-.985.734-1.692.177-.706.279-1.562.306-2.568h2.527c-.027 1.25-.183 2.358-.468 3.323-.286.964-.68 1.773-1.182 2.425a4.759 4.759 0 0 1-1.855 1.467c-.734.326-1.576.49-2.527.49Zm-3.75-12.595h7.215c0-1.331-.055-2.472-.164-3.423-.108-.951-.285-1.74-.53-2.365-.245-.624-.584-1.086-1.019-1.385-.434-.3-.978-.45-1.63-.45-1.032 0-1.827.327-2.384.98-.558.65-.945 1.547-1.162 2.689-.218 1.141-.326 2.46-.326 3.954Z" clip-rule="evenodd"/><path fill="#fff" d="M87.747 28.419V6.979h2.038l.204 2.854h.203c.354-.815.754-1.468 1.203-1.958.448-.489.944-.842 1.487-1.059a4.57 4.57 0 0 1 1.712-.326c1.006 0 1.842.245 2.508.734.665.489 1.093 1.358 1.284 2.609h.244c.353-.815.74-1.468 1.161-1.958.421-.489.903-.842 1.447-1.059a4.568 4.568 0 0 1 1.712-.326c.842 0 1.562.163 2.16.49.598.325 1.067.882 1.407 1.67.339.789.509 1.848.509 3.18v16.589h-2.567V12.4c0-.516-.021-.992-.061-1.426a3.19 3.19 0 0 0-.307-1.141 1.652 1.652 0 0 0-.692-.735c-.299-.163-.693-.244-1.182-.244-.68 0-1.284.245-1.814.733-.53.49-.951 1.243-1.263 2.262-.313 1.02-.47 2.303-.47 3.852V28.42h-2.527V12.4c0-.516-.027-.992-.08-1.426a3.505 3.505 0 0 0-.328-1.141 1.652 1.652 0 0 0-.692-.735c-.299-.163-.693-.244-1.182-.244-.68 0-1.284.245-1.814.733-.53.49-.951 1.243-1.263 2.262-.313 1.02-.47 2.303-.47 3.852V28.42h-2.567Z"/><path fill="#fff" fill-rule="evenodd" d="M115.191 28.908c-1.577 0-2.834-.381-3.77-1.142-.938-.76-1.611-1.969-2.018-3.627-.408-1.657-.612-3.804-.612-6.44 0-2.744.224-4.938.672-6.583.449-1.644 1.162-2.826 2.14-3.546.979-.72 2.256-1.08 3.832-1.08 1.25 0 2.316.292 3.199.876.883.584 1.549 1.59 1.998 3.017.449 1.426.673 3.39.673 5.89v1.956h-9.864c0 1.93.102 3.52.305 4.77.204 1.249.578 2.18 1.121 2.79.544.612 1.304.918 2.282.918.516 0 .985-.102 1.407-.306a3.002 3.002 0 0 0 1.101-.937c.312-.421.556-.985.733-1.692.176-.706.278-1.562.306-2.568h2.527c-.028 1.25-.184 2.358-.469 3.323-.285.964-.679 1.773-1.181 2.425a4.762 4.762 0 0 1-1.856 1.467c-.733.326-1.575.49-2.526.49Zm-3.75-12.595h7.214c0-1.331-.055-2.472-.163-3.423-.109-.951-.286-1.74-.53-2.365-.245-.624-.584-1.086-1.019-1.385-.435-.3-.978-.45-1.63-.45-1.033 0-1.828.327-2.385.98-.557.65-.944 1.547-1.161 2.689-.218 1.141-.326 2.46-.326 3.954Z" clip-rule="evenodd"/><path fill="#fff" d="M14.306 14.688a4.47 4.47 0 0 0-.68-1.314 5.877 5.877 0 0 0-.941-.992c-.668-.56-1.368-.958-2.052-1.309-1.37-.692-2.716-1.197-3.948-1.787a13.044 13.044 0 0 1-1.71-.953c-.512-.346-.947-.73-1.245-1.146a2.707 2.707 0 0 1-.522-1.564l-.004-.098.006-.089c.004-.06.006-.12.008-.18.006-.06.02-.12.029-.179.01-.12.056-.236.083-.354.014-.06.045-.115.065-.173.025-.056.038-.117.072-.17.219-.445.546-.859.974-1.166a3.77 3.77 0 0 1 1.458-.638c.133-.03.272-.039.407-.062l.417-.023.446.012c.145.018.294.024.436.047a4.748 4.748 0 0 1 1.605.533c.496.262.93.637 1.304 1.08.38.441.692.962.945 1.528l2.103-.84a8.069 8.069 0 0 0-1.202-2.18A6.835 6.835 0 0 0 10.421.964a7.18 7.18 0 0 0-2.438-.86C7.773.07 7.562.053 7.352.028c-.21-.014-.42-.02-.63-.028-.218.009-.437.015-.656.031-.219.032-.439.052-.657.099a6.274 6.274 0 0 0-2.451 1.066 5.67 5.67 0 0 0-1.76 2.1c-.057.102-.092.216-.139.323-.041.111-.09.218-.123.331-.063.23-.137.454-.169.69-.019.118-.041.235-.054.353l-.022.357-.008.178.004.17a5.311 5.311 0 0 0 .325 1.716c.163.446.39.869.657 1.244.539.752 1.208 1.318 1.88 1.776.675.458 1.365.817 2.044 1.141 1.356.647 2.7 1.153 3.89 1.758.591.3 1.14.627 1.575.987.433.364.726.742.853 1.143.067.2.102.421.097.653.002.212-.043.416-.118.62a2.222 2.222 0 0 1-.202.398 8.761 8.761 0 0 0-.64-.422c-.487-.292-.978-.54-1.463-.76-.973-.438-1.931-.791-2.856-1.151-.923-.36-1.819-.725-2.63-1.154-.812-.425-1.521-.933-2.026-1.535L.304 13.526c.772.96 1.733 1.637 2.682 2.163.957.535 1.927.932 2.869 1.316.942.381 1.864.737 2.72 1.137.426.2.83.414 1.202.643.373.229.705.48.968.747.532.541.766 1.107.77 1.83a4.865 4.865 0 0 1-.156 1.156c-.114.377-.262.75-.463 1.11-.048.092-.109.18-.163.268l-.081.135c-.028.044-.062.087-.092.13l-.185.262-.205.255-.103.127-.112.123-.223.248-.239.239c-.077.081-.159.16-.244.236a17.43 17.43 0 0 1-1.686 1.367 17.12 17.12 0 0 1-1.454-.663A12.16 12.16 0 0 1 4.265 25.2c-.558-.431-1.053-.916-1.396-1.43a3.073 3.073 0 0 1-.384-.773 2.092 2.092 0 0 1-.087-.377 1.8 1.8 0 0 1-.013-.38c.035-1.05.876-1.68 1.805-1.393.438.119.81.46 1.035.93.109.233.19.492.207.765.023.27.001.547-.058.821l2.197.549a5.027 5.027 0 0 0 .132-1.56 4.42 4.42 0 0 0-.4-1.543 4.228 4.228 0 0 0-.961-1.334 3.783 3.783 0 0 0-1.47-.846c-.136-.05-.274-.076-.414-.104l-.21-.04c-.069-.01-.14-.012-.209-.018l-.21-.014a3.275 3.275 0 0 0-.66.034c-.293.04-.579.127-.853.235-.27.119-.532.257-.766.437a3.644 3.644 0 0 0-1.117 1.332A4.183 4.183 0 0 0 .01 22.1c-.019.262-.015.546.02.819.036.27.09.54.17.791.155.512.391.968.657 1.382.54.825 1.209 1.469 1.906 2.025a14.448 14.448 0 0 0 2.201 1.42c.76.403 1.539.745 2.328 1.048l.588.23.54-.36c.877-.583 1.739-1.22 2.543-1.968.101-.09.2-.186.296-.286l.294-.294.283-.312.14-.156.134-.166.268-.332.25-.354c.042-.059.085-.117.124-.178l.114-.188c.075-.126.156-.246.224-.378a7.953 7.953 0 0 0 .68-1.671 7.28 7.28 0 0 0 .236-1.822 5.045 5.045 0 0 0-.41-1.951 4.697 4.697 0 0 0-.194-.39l.104-.122c.292-.37.543-.79.723-1.256a4.28 4.28 0 0 0 .289-1.48 4.456 4.456 0 0 0-.213-1.463Z"/></svg>
